svgs/duotone/circle-w.svg

<svg xmlns="http://www.w3.org/2000/svg" viewBox="0 0 512 512"><!-- Font Awesome Pro 6.0.0-alpha2 by @fontawesome - https://fontawesome.com License - https://fontawesome.com/license (Commercial License) --><defs><style>.fa-secondary{opacity:.4}</style></defs><path d="M256 16C123.451 16 16 123.451 16 256S123.451 496 256 496S496 388.549 496 256S388.549 16 256 16ZM398.938 175.062L334.938 383.062C331.844 393.141 322.516 400 312 400H311.578C300.875 399.812 291.609 392.562 288.828 382.234L256 260.312L223.172 382.234C220.391 392.562 211.125 399.812 200.422 400C189.688 399.984 180.203 393.266 177.062 383.062L113.062 175.062C109.156 162.391 116.266 148.953 128.938 145.062C141.594 141.203 155.031 148.266 158.938 160.938L198.469 289.391L232.828 161.766C235.641 151.281 245.141 144 256 144S276.359 151.281 279.172 161.766L313.531 289.391L353.063 160.937C356.953 148.266 370.406 141.234 383.063 145.062C395.734 148.953 402.844 162.391 398.938 175.062Z" class="fa-secondary"/><path d="M383.071 145.062C370.415 141.234 356.962 148.266 353.071 160.938L313.54 289.391L279.181 161.766C276.368 151.281 266.868 144 256.009 144S235.65 151.281 232.837 161.766L198.478 289.391L158.946 160.938C155.04 148.266 141.603 141.203 128.946 145.062C116.275 148.953 109.165 162.391 113.071 175.062L177.071 383.062C180.212 393.266 189.696 399.984 200.431 400C211.134 399.812 220.4 392.562 223.181 382.234L256.009 260.312L288.837 382.234C291.618 392.562 300.884 399.812 311.587 400H312.009C322.525 400 331.853 393.141 334.946 383.062L398.946 175.062C402.853 162.391 395.743 148.953 383.071 145.062Z" class="fa-primary"/></svg>

<svg xmlns="http://www.w3.org/2000/svg" viewBox="0 0 512 512"><!--! Font Awesome Pro 6.3.0 by @fontawesome - https://fontawesome.com License - https://fontawesome.com/license (Commercial License) Copyright 2023 Fonticons, Inc. --><defs><style>.fa-secondary{opacity:.4}</style></defs><path class="fa-primary" d="M383.1 145.1c-12.66-3.828-26.11 3.203-30 15.88L313.5 289.4l-34.36-127.6C276.4 151.3 266.9 144 256 144S235.6 151.3 232.8 161.8L198.5 289.4L158.9 160.9c-3.906-12.67-17.34-19.73-30-15.88c-12.67 3.891-19.78 17.33-15.88 30l64 208C180.2 393.3 189.7 399.1 200.4 400c10.7-.1875 19.97-7.438 22.75-17.77L256 260.3l32.83 121.9C291.6 392.6 300.9 399.8 311.6 400H312c10.52 0 19.84-6.859 22.94-16.94l64-208C402.8 162.4 395.7 148.1 383.1 145.1z"/><path class="fa-secondary" d="M256 0C114.6 0 0 114.6 0 256s114.6 256 256 256s256-114.6 256-256S397.4 0 256 0zM398.9 175.1l-64 208C331.8 393.1 322.5 400 312 400h-.4219c-10.7-.1875-19.97-7.438-22.75-17.77L256 260.3l-32.83 121.9C220.4 392.6 211.1 399.8 200.4 400c-10.73-.0156-20.22-6.734-23.36-16.94l-64-208c-3.906-12.67 3.203-26.11 15.88-30c12.66-3.859 26.09 3.203 30 15.88L198.5 289.4l34.36-127.6C235.6 151.3 245.1 144 256 144s20.36 7.281 23.17 17.77l34.36 127.6l39.53-128.5c3.891-12.67 17.34-19.7 30-15.88C395.7 148.1 402.8 162.4 398.9 175.1z"/></svg>
